MA4T1/133/aimg/patron-2.svg

<svg clip-rule="evenodd" fill-rule="evenodd" stroke-linecap="round" stroke-linejoin="round" stroke-miterlimit="10" viewBox="0 0 2221 226" xmlns="http://www.w3.org/2000/svg"><path d="m0 40.535h-380.763c-5.225 0-9.461-4.235-9.461-9.461v-21.613c0-5.225 4.236-9.461 9.461-9.461h380.763c5.226 0 9.461 4.236 9.461 9.461v21.613c0 5.226-4.235 9.461-9.461 9.461" fill="#e2efd6" fill-rule="nonzero" transform="matrix(5.55556 0 0 5.55556 2167.92459592 .00155104)"/><path d="m-15.947-15.947c-8.808 0-15.945 7.14-15.945 15.946 0 8.808 7.137 15.948 15.945 15.948 8.807 0 15.946-7.14 15.946-15.948 0-8.806-7.139-15.946-15.946-15.946" fill="#deb5d5" fill-rule="nonzero" transform="matrix(0 -5.55556 -5.55556 0 186.333288426 20.8960122)"/><path d="m206.376 380.717h49.56v31.893h-49.56z" fill="#fdcd9d" stroke="#f68b1e" stroke-width=".43" transform="matrix(-5.55556 0 0 5.55556 1727.501188026 -2094.20567988)"/><path d="m-15.947-15.947c-8.808 0-15.945 7.14-15.945 15.946 0 8.808 7.137 15.948 15.945 15.948 8.807 0 15.946-7.14 15.946-15.948 0-8.806-7.139-15.946-15.946-15.946" fill="#deb5d5" fill-rule="nonzero" transform="matrix(0 -5.55556 -5.55556 0 700.267032906 20.8960122)"/><path d="m298.883 380.717h49.56v31.893h-49.56z" fill="#fdcd9d" stroke="#f68b1e" stroke-width=".43" transform="matrix(-5.55556 0 0 5.55556 2755.357565866 -2094.20567988)"/><path d="m-15.947-15.947c-8.808 0-15.945 7.14-15.945 15.946 0 8.808 7.137 15.948 15.945 15.948 8.807 0 15.946-7.14 15.946-15.948 0-8.806-7.139-15.946-15.946-15.946" fill="#deb5d5" fill-rule="nonzero" transform="matrix(0 -5.55556 -5.55556 0 1214.195221826 20.8960122)"/><path d="m391.39 380.717h49.56v31.893h-49.56z" fill="#fdcd9d" stroke="#f68b1e" stroke-width=".43" transform="matrix(-5.55556 0 0 5.55556 3783.213943706 -2094.20567988)"/><path d="m-15.947-15.947c-8.808 0-15.945 7.139-15.945 15.946 0 8.808 7.137 15.948 15.945 15.948 8.807 0 15.946-7.14 15.946-15.948 0-8.807-7.139-15.946-15.946-15.946" fill="#deb5d5" fill-rule="nonzero" transform="matrix(0 -5.55556 -5.55556 0 1728.123410746 20.8960122)"/><g stroke-width=".43"><path d="m483.897 380.717h49.561v31.893h-49.561z" fill="#fdcd9d" stroke="#f68b1e" transform="matrix(-5.55556 0 0 5.55556 4811.103654906 -2094.20567988)"/><ellipse cx="-15.947" fill="none" rx="15.946" ry="15.947" stroke="#bd56a0" transform="matrix(0 -5.55556 -5.55556 0 186.03412152 20.8960122)"/><ellipse cx="-15.947" fill="none" rx="15.946" ry="15.947" stroke="#bd56a0" transform="matrix(0 -5.55556 -5.55556 0 699.967866 20.8960122)"/><ellipse cx="-15.947" fill="none" rx="15.946" ry="15.947" stroke="#bd56a0" transform="matrix(0 -5.55556 -5.55556 0 1213.89605492 20.8960122)"/><ellipse cx="-15.947" fill="none" rx="15.946" ry="15.947" stroke="#bd56a0" transform="matrix(0 -5.55556 -5.55556 0 1727.82424384 20.8960122)"/></g></svg>

<?xml version="1.0" encoding="UTF-8" standalone="no"?>
<!DOCTYPE svg PUBLIC "-//W3C//DTD SVG 1.1//EN" "http://www.w3.org/Graphics/SVG/1.1/DTD/svg11.dtd">
<svg width="100%" height="100%" viewBox="0 0 2221 226" version="1.1" xmlns="http://www.w3.org/2000/svg" xmlns:xlink="http://www.w3.org/1999/xlink" xml:space="preserve" xmlns:serif="http://www.serif.com/" style="fill-rule:evenodd;clip-rule:evenodd;stroke-linecap:round;stroke-linejoin:round;stroke-miterlimit:10;">
    <g transform="matrix(1,0,0,1,-22590.5,-21072.7)">
        <g transform="matrix(5.55556,0,0,5.55556,21791.3,19133.9)">
            <g transform="matrix(1,0,0,1,534.082,348.984)">
                <path d="M0,40.535L-380.763,40.535C-385.988,40.535 -390.224,36.3 -390.224,31.074L-390.224,9.461C-390.224,4.236 -385.988,0 -380.763,0L0,0C5.226,0 9.461,4.236 9.461,9.461L9.461,31.074C9.461,36.3 5.226,40.535 0,40.535" style="fill:rgb(226,239,214);fill-rule:nonzero;"/>
            </g>
        </g>
        <g transform="matrix(5.55556,0,0,5.55556,21791.3,19133.9)">
            <g transform="matrix(1,0,0,1,-7.50615,0)">
                <g transform="matrix(0,-1,-1,0,184.902,352.745)">
                    <path d="M-15.947,-15.947C-24.755,-15.947 -31.892,-8.807 -31.892,-0.001C-31.892,8.807 -24.755,15.947 -15.947,15.947C-7.14,15.947 -0.001,8.807 -0.001,-0.001C-0.001,-8.807 -7.14,-15.947 -15.947,-15.947" style="fill:rgb(222,181,213);fill-rule:nonzero;"/>
                </g>
                <g transform="matrix(-1,0,0,1,462.312,-27.973)">
                    <rect x="206.376" y="380.717" width="49.56" height="31.893" style="fill:rgb(253,205,157);stroke:rgb(246,139,30);stroke-width:0.43px;"/>
                </g>
                <g transform="matrix(0,-1,-1,0,277.41,352.745)">
                    <path d="M-15.947,-15.947C-24.755,-15.947 -31.892,-8.807 -31.892,-0.001C-31.892,8.807 -24.755,15.947 -15.947,15.947C-7.14,15.947 -0.001,8.807 -0.001,-0.001C-0.001,-8.807 -7.14,-15.947 -15.947,-15.947" style="fill:rgb(222,181,213);fill-rule:nonzero;"/>
                </g>
                <g transform="matrix(-1,0,0,1,647.326,-27.973)">
                    <rect x="298.883" y="380.717" width="49.56" height="31.893" style="fill:rgb(253,205,157);stroke:rgb(246,139,30);stroke-width:0.43px;"/>
                </g>
                <g transform="matrix(0,-1,-1,0,369.917,352.745)">
                    <path d="M-15.947,-15.947C-24.755,-15.947 -31.892,-8.807 -31.892,-0.001C-31.892,8.807 -24.755,15.947 -15.947,15.947C-7.14,15.947 -0.001,8.807 -0.001,-0.001C-0.001,-8.807 -7.14,-15.947 -15.947,-15.947" style="fill:rgb(222,181,213);fill-rule:nonzero;"/>
                </g>
                <g transform="matrix(-1,0,0,1,832.34,-27.973)">
                    <rect x="391.39" y="380.717" width="49.56" height="31.893" style="fill:rgb(253,205,157);stroke:rgb(246,139,30);stroke-width:0.43px;"/>
                </g>
                <g transform="matrix(0,-1,-1,0,462.424,352.745)">
                    <path d="M-15.947,-15.947C-24.755,-15.947 -31.892,-8.808 -31.892,-0.001C-31.892,8.807 -24.755,15.947 -15.947,15.947C-7.14,15.947 -0.001,8.807 -0.001,-0.001C-0.001,-8.808 -7.14,-15.947 -15.947,-15.947" style="fill:rgb(222,181,213);fill-rule:nonzero;"/>
                </g>
                <g transform="matrix(-1,0,0,1,1017.36,-27.973)">
                    <rect x="483.897" y="380.717" width="49.561" height="31.893" style="fill:rgb(253,205,157);stroke:rgb(246,139,30);stroke-width:0.43px;"/>
                </g>
            </g>
        </g>
        <g transform="matrix(5.55556,0,0,5.55556,21791.3,19133.9)">
            <g transform="matrix(0,-1,-1,0,177.342,352.745)">
                <ellipse cx="-15.947" cy="0" rx="15.946" ry="15.947" style="fill:none;stroke:rgb(189,86,160);stroke-width:0.43px;"/>
            </g>
        </g>
        <g transform="matrix(5.55556,0,0,5.55556,21791.3,19133.9)">
            <g transform="matrix(0,-1,-1,0,269.85,352.745)">
                <ellipse cx="-15.947" cy="0" rx="15.946" ry="15.947" style="fill:none;stroke:rgb(189,86,160);stroke-width:0.43px;"/>
            </g>
        </g>
        <g transform="matrix(5.55556,0,0,5.55556,21791.3,19133.9)">
            <g transform="matrix(0,-1,-1,0,362.357,352.745)">
                <ellipse cx="-15.947" cy="0" rx="15.946" ry="15.947" style="fill:none;stroke:rgb(189,86,160);stroke-width:0.43px;"/>
            </g>
        </g>
        <g transform="matrix(5.55556,0,0,5.55556,21791.3,19133.9)">
            <g transform="matrix(0,-1,-1,0,454.864,352.745)">
                <ellipse cx="-15.947" cy="0" rx="15.946" ry="15.947" style="fill:none;stroke:rgb(189,86,160);stroke-width:0.43px;"/>
            </g>
        </g>
    </g>
</svg>
